X:4004
T:Dashing White Sergeant, The
R:Reel
C:Trad.
O:Scotland
Z:Paul Hardy's Session Tunebook 2022 (see www.paulhardy.net). Creative Commons cc by-nc-sa licenced.
M:4/4
L:1/8
Q:1/4=160
K:D
FE|"D"D2D2DEFG|A2A2A2fe|d2B2A2F2|"Em"B2E2EGFE|
"D"D2D2DEFG|A2A2A2ff|"E7"e2d2c2B2|1"A"A3B AG:|2"A"A4A2E2||
"A"A2AB c2cd|e2ec A3A|"Bm"B2Bc d2de|f2fd B3B|"A"c2A2 "D"d2A2|"A "e2A2 "D"f2A2|
"G"g2f2e2d2|"A"c2B2A2G2|"D"F2d2dcde|d2A2A2z2|"Em"B2e2edef|e2B2B2z2|
"D"A2d2dcde|f2d2dcde|f2z2"A"e2z2|1"D"d2cB "A"AG||2"D""_Out"d4|]

